coreui/free/cil-beaker.svg

<svg xmlns="http://www.w3.org/2000/svg" viewBox="0 0 512 512">
  <path fill="var(--ci-primary-color, currentColor)" d="M80,495.918l352.039.08h.006a24,24,0,0,0,24-24.008L456,354.472a23.9,23.9,0,0,0-4.239-13.613L344,184.511V121h40a24.028,24.028,0,0,0,24-24V16H104V97a24.027,24.027,0,0,0,24,24h39.917v64.621L60.276,340.834A23.9,23.9,0,0,0,56,354.509V471.918A24.029,24.029,0,0,0,80,495.918ZM199.917,195.631V89H136V48H376V89H312V194.47L376.465,288H135.859ZM88,357.011,113.667,320H398.52L424,356.971,424.037,464,88,463.92Z" class="ci-primary"/>
</svg>

<svg viewBox="0 0 512 512" xmlns="http://www.w3.org/2000/svg"><path d="M80 495.91l352.039.08h0l0-.001c13.25 0 24-10.75 24-24 0-.01-.01-.01-.01-.01l-.05-117.52v0c0-4.87-1.48-9.62-4.24-13.613l-107.77-156.35v-63.52h40v0c13.24-.02 23.98-10.76 24-24v-81h-304v81h0c.01 13.24 10.75 23.98 24 24h39.91v64.62L60.22 340.8h0c-2.8 4.01-4.29 8.78-4.28 13.67v117.4 0c.01 13.24 10.75 23.98 24 24Zm119.91-300.29V88.98h-63.917v-41h240v41h-64v105.47l64.46 93.53H135.84ZM87.99 357l25.667-37.02h284.85l25.48 36.97 .03 107.02 -336.04-.08Z"/></svg>
